!!!COM:	L van Beethoven
!!!OTL:	String Quartet No15 Op 132
**kern	**dynam
*I"Violoncello	*
*clefF4	*
*k[]	*
*a:	*
*M2/2	*
=1	=1
!LO:TX:a:B:t=Assai sostenuto	!
(2GG#	pp
2AA	.
=2	=2
2F	.
2E)	.
=3	=3
1r	.
=4	=4
1r	.
=5	=5
(2F	pp
2E	.
=6	=6
2GG#	.
2AA)	.
=7	=7
(2DD#	<
2EE	>
=8	=8
2C)	pp
!LO:TX:t=cresc.	!
4BB	<
4BB	.
=9||	=9||
*M4/4	*
!LO:TX:a:B:t=Allegro	!
4BB	f
4r	.
2r	.
=10	=10
2r	.
4r	.
4C	p
=11	=11
4r	.
*clefG2	*
(8.aaL	.
16bb	.
4ccc	.
8.bbL	.
16aa)	.
=12	=12
(4aa	.
2.gg#)	.
=13	=13
1r	.
=14	=14
1r	.
*clefF4	*
=15	=15
1GG#	p
=16	=16
(2.AA	<
4BB)	>
=17	=17
4C	]
2c	<
4c#	>
=18	=18
[2d	]
4d	.
!LO:TX:t=cresc.	!
(8.dL	.
16B-)	.
=19	=19
(8.B-L	f
16F)	.
(8.FL	.
16D)	.
(8.DL	.
16BB-)	.
(8.BB-L	.
16AA)	.
=20	=20
4GG#	.
4GG	.
4FF#	.
4FF	.
=21	=21
!LO:TX:a:B:t=Adagio	!
1EE	fp
=22	=22
!LO:TX:a:B:t=Allegro	!
4E	p
4r	.
2r	.
=23	=23
4r	.
(8.AAL	p
16BB	.
4C	.
8.BBL	.
16AA)	.
=24	=24
(4AA	.
2.GG#)	.
=25	=25
1r	.
=26	=26
2r	.
4r	.
*clefC4	*
(8.f	.
16d#)	.
=27	=27
(4f	<
2.e)	>
=28	=28
4r	]
!LO:TX:t=cresc.	!
(8.aL	<
16e)	.
(8.gL	.
16f)	.
(8.fL	.
16d)	.
*clefF4	*
=29	=29
(8.DL	f
16BB-)	.
(8.BB-L	.
16FF)	.
(8.FFL	.
16DD)	.
(8.DDL	.
16DD-)	.
=30	=30
1DD-	f
=31	=31
1CC	>
=32	=32
1DD-	f
=33	=33
2.CC	>
4c	]
=34	=34
4r	.
4c	p
4r	.
4E	.
=35	=35
4r	.
4F	.
4r	.
4AA	.
=36	=36
4r	.
4C	.
4r	.
4c	.
=37	=37
4r	.
4f	.
4r	.
4A	.
=38	=38
!LO:TX:t=cresc.	!
!LO:TX:t=cresc.	!
8B-L	<
8BB-	.
8B-	.
8GG	.
8GL	.
8GG	.
8G	.
8EE	.
=39||	=39||
*k[b-]	*
*F:	*
8CL	.
8CC	.
8C	.
8C	.
8CL	.
8CC	.
8C	[
8BB-	f
=40	=40
8.B-	.
16r	.
[2.A	f
=41	=41
4..A	p
16A	.
4d	.
4d	.
=42	=42
(4d	.
4c#)	.
8eL	.
8e	.
(16eLL	.
16f	.
8e)	.
=43	=43
(4e	.
4d)	.
4G	.
4G	.
=44	=44
!LO:TX:t=cresc.	!
(8CL	<
8B-)	.
(8CL	.
8B-)	.
(8CL	.
8A)	.
(8CL	.
8A)	.
=45	=45
(8CL	.
8E)	.
(8CL	.
8E)	.
(8CL	.
8F)	.
(8E-L	.
8F)	.
=46	=46
(8DL	.
8F)	.
(8AAL	.
8F)	.
(8BB-L	.
8F)	.
(8BB-L	.
8F)	.
=47	=47
(8BB-L	.
8F)	.
(8BBL	.
8G)	.
(8CL	[
8A)	.
(8CL	>
8B-)	.
=48	=48
!LO:TX:t=non legato	!
4FF	p
12r	.
12D	.
12C	.
4FF	.
12r	.
12D	.
12C	.
=49	=49
4EE	.
12r	.
12D	.
12C	.
4EE	.
12r	.
12D	.
12C	.
=50	=50
4FF	.
12r	.
12D	.
12C	.
4FF	.
12r	.
12D	.
12C	.
=51	=51
4GG	.
12r	.
12D	.
12C	.
4GG	.
12r	.
12E	.
12D	.
=52	=52
4C	.
12r	.
12A	.
12G	.
4C	.
12r	.
12C	.
12BB-	.
=53	=53
4AA	.
12r	.
12G	.
12F	.
!LO:TX:t=cresc.	!
4AA	.
12r	.
12G	.
12F	.
=54	=54
!LO:TX:t=dim.	!
4BB-	.
12r	.
12G	.
12F	.
4BB-	.
12r	.
12G	.
12F	.
=55	=55
4C	p
12r	.
12G	.
12F	.
4C	.
12r	.
12A	.
12G	.
=56	=56
(4.C	.
8AA)	.
(4.BB-	.
8EE)	.
=57	=57
!LO:TX:t=dolce	!
(8FFL	.
16GG	.
16FF	.
8EEL	.
16FF	.
16GG	.
8AAL	.
16BB-	.
16AA	.
8GGL	.
16AA	.
16BB-)	.
=58	=58
(4AA	.
4GG	.
4FF	.
8CC)	.
8C	.
=59	=59
!LO:TX:t=cresc.	!
!LO:TX:t=cresc.	!
8FFL	.
(16FF	<
16GG	.
8AAL	.
16BB-	.
16C	.
8DL)	.
(16D	.
16E	.
[4F)	.
=60	=60
8FL	.
(16G	.
16A	.
[4B-)	.
!LO:TX:t=non legato	!
!LO:TX:t=non legato	!
8B-L	.
16BB-	.
16C	.
16DLL	.
16E	.
16F	.
16G	.
=61	=61
16B-LL	f
16A	[
16G	.
16F	.
16ELL	.
16F	.
16G	.
16A	.
16B-LL	.
16A	.
16G	.
16F	.
16ELL	.
16D	.
16C	.
16BB-	.
=62	=62
16AALL	.
16BB-	.
16C	.
16D	.
16ELL	.
16F	.
16G	.
16A	.
[2d	ff
=63	=63
4d	p
!LO:TX:t=legato	!
(4d	.
4e	.
4g	.
=64	=64
4a)	.
(4BB	.
4C	.
4E)	.
=65	=65
(16GLL	.
16F	.
16E	.
16F	.
!LO:TX:t=cresc.	!
16ELL	<
16F	.
16E	.
16D)	.
(16DLL	.
16C	.
16BB	.
16C)	.
(16CLL	.
16BB-	.
16AA	.
16GG)	.
=66	=66
(16BB-LL	.
16AA	.
16GG	.
16AA)	.
4D	.
(16CLL	.
16BB-	.
16AA	.
16GG	.
16FFLL	.
16EE	.
16DD	.
16CC)	[
=67	=67
(8.FFL	ff
16GG)	.
(8.BB-L	sf
16D-)	.
(8.EL	sf
16G)	.
(8.GL	sf
16A)	.
=68	=68
(2BB	p
2C)	.
=69	=69
(8.FL	sf
16E)	.
(8.D-L	sf
16BB-)	.
(8.GGL	sf
16EE)	.
(8.D-L	sf
16C)	.
=70	=70
(2D	p
2C)	.
=71	=71
!LO:TX:B:t=Rit.	!
(2BB	.
2C)	.
=72	=72
!LO:TX:t=cresc.	!
(2BB	.
2CC) 2C	.
=73	=73
!LO:TX:a:B:t=A tempo	!
8FL	p
8r	.
8D	.
8r	.
8CL	.
8r	.
8C	f
8r	.
=74	=74
4r	.
2.FF	p
=75	=75
(1FF	pp
=76	=76
1FF#	.
=77	=77
1E-)	pp
=78	=78
[1D	.
=79	=79
1D	.
=80	=80
1D	.
=81	=81
[1D	.
=82	=82
1D	.
=83	=83
(4D	.
8.F#L	.
16G	.
4A	.
4F#)	.
=84	=84
(4F	<
8.DL	.
16E-	.
4F	[
8E-	>
8C)	.
=85	=85
1BB	]
=86	=86
(2.C	<
4BB-)	<
=87	=87
2AA-	>
2A-	.
=88	=88
!LO:TX:t=cresc.	!
[1G	<
=89	=89
4G	.
(8.CL	.
16D	.
4E-	.
8.DL	.
16C)	.
=90	=90
4BB-	.
(8.AA-L	.
16BB-	.
4C	.
8.BB-L	.
16AA-)	.
=91	=91
4AA-	f
4AA	.
4GG	.
4GG	.
=92||	=92||
*k[]	*
*C:	*
2r	.
8.r	.
(16DD	p
8.CC	.
16DD)	.
=93	=93
(8FFL	.
[4.EE)	.
8EEL	.
(8FF	.
8.EE	.
16FF)	.
=94	=94
(8AAL	.
4.GG)	.
2r	.
=95	=95
8.r	.
(16C	.
8.BB	.
16C)	.
(8EEL	.
4.DD)	.
=96	=96
8.r	.
(16E	.
8.D	.
16E)	.
(8GGL	.
4.FF)	.
=97	=97
(8.FFL	>
16G)	]
8GL	p
8F	.
(8.EL	>
16F)	]
8FL	p
8E	.
=98	=98
(8.DL	>
16e)	]
8eL	p
8d	.
8cL	pp
8B	.
8A	.
8G	.
=99	=99
!LO:TX:t=cresc.	!
(8.GL	<
16BB	.
8.CL	.
16D	.
4E	.
8.DL	.
16C)	.
=100	=100
(4BB	.
8.AAL	.
16BB	.
4C	.
8.BBL	.
16AA)	.
=101	=101
(8AAL	.
8GG)	.
(8.GGL	.
16AA	.
4BB	.
8.AAL	.
16GG)	[
=102	=102
4AA	f
4AA#	.
4BB	.
4BB	.
=103	=103
1DD#	ff
=104	=104
1EE	f
=105	=105
1C	f
=106	=106
!LO:TX:t=f H	!
1BB	.
*clefC4	*
=107	=107
(1d#	p
=108	=108
1e	.
=109	=109
1cc	.
=110	=110
!LO:TX:t=cresc.	!
2.b)	.
(8.f#L	.
16g)	.
=111||	=111||
*k[f#]	*
*e:	*
4a	f
*clefF4	*
(8.AL	.
16G	.
4F#	.
8.GL	.
16A)	.
=112	=112
(4A	.
2G	.
4F#)	.
=113	=113
4E	.
(8.EEL	.
16FF#	.
4GG	.
8.FF#L	.
16EE)	.
=114	=114
(4EE	.
2DD#)	.
4r	.
=115	=115
2r	.
4r	.
4E	p
=116	=116
(4E	.
2D#	.
4D)	pp
=117	=117
(4C	.
2BB	.
4AA)	.
=118	=118
!LO:TX:t=cresc.	!
4GG	.
4FF#	.
4EE	.
4DD#	.
=119	=119
4F#	f
4r	.
2r	.
=120	=120
2r	.
4r	.
*clefC4	*
4f#	p
=121	=121
4r	.
(8.eL	.
16f#	.
4g	.
8.f#L	.
16e)	.
=122	=122
(4e	.
2.d#)	.
=123	=123
1r	.
=124	=124
1r	.
=125	=125
1r	.
=126	=126
4r	.
!LO:TX:t=espressivo	!
(8g	.
16f#	.
16d#	.
4f#	.
4e)	.
=127	=127
4r	.
*clefG2	*
(8bb	.
16aa	.
16ff#)	.
(8aaL	.
4gg	.
8gg#)	.
=128	=128
4r	.
(8aa	.
8ee	.
!LO:TX:t=cresc.	!
2ff)	.
*clefF4	*
=129	=129
(8.FL	f
16C)	.
(8.CL	.
16AA)	.
(8.AAL	.
16FF)	.
(8.FFL	.
16EE)	.
=130	=130
4DD#	.
4C	.
4BB	.
4AA#	.
=131	=131
!LO:TX:a:B:t=Adagio	!
1BB	p
=132	=132
!LO:TX:a:B:t=Allegro	!
2.BB	<
4FF#	>
=133	=133
4EE	]
4r	.
2r	.
=134	=134
(1BB-	p
=135	=135
1AA)	.
=136	=136
[1AA	.
=137	=137
4AA	.
(8.DL	.
16E	.
4F)	.
(8.BB-L	.
16AA)	.
=138||	=138||
*k[]	*
*C:	*
(4AA	.
8.BB-L	.
16AA)	.
(4AA	.
8.GL	.
16E)	.
=139	=139
(4G	.
2F)	.
(8.EL	.
16C#)	.
=140	=140
(4E	.
2D)	.
(8.AAL	.
16AA-)	.
=141	=141
1AA-	f
=142	=142
1GG	.
=143	=143
1AA-	f
=144	=144
1GG	>
=145	=145
4r	]
4G	p
4r	.
4BB	.
=146	=146
4r	.
4C	.
4r	.
4E	.
=147	=147
4r	.
4G	.
4r	.
4B	.
=148	=148
4r	.
4c	.
4r	.
4E	.
=149	=149
!LO:TX:t=cresc.	!
8FL	<
8FF	.
8F	.
8FF	.
8FL	.
8D	.
8d	.
8D	.
=150	=150
8dL	.
8BB	.
8G	.
8GG	.
8GL	.
8GG	.
8G	.
8F	f
=151	=151
4F	.
4E	.
2r	.
=152	=152
1r	.
=153	=153
4r	.
8.r	.
16BB	pp
4E	.
4E	.
=154	=154
8EL	.
8C	.
8C	.
8C	.
8AAL	.
8A	.
8A	.
8A	.
=155	=155
!LO:TX:t=cresc.	!
(8.GGL	<
16F)	.
4r	.
(8.GGL	.
16E)	.
4r	.
=156	=156
(8.GGL	.
16BB)	.
4r	.
(8.GGL	.
16C)	.
(8.B-L	.
16A)	.
=157	=157
(8.AL	.
16A-)	.
(8.A-L	.
16G)	.
(8.GL	.
16E)	.
(8.EL	.
16F)	.
=158	=158
(8.FL	.
16FF)	.
(8.FFL	.
16FF#)	[
(8.FF#L	f
16GG)	.
(8.GGL	>
16G)	]
=159	=159
2r	.
*clefC4	*
8r	.
(8c	p
!LO:TX:t=dolce	!
8d	.
8e)	.
=160	=160
(4..f	.
16e)	.
(4d	.
4d)	.
=161	=161
(4f	.
8e	.
8d	.
4c	.
8d	.
8e)	.
=162	=162
(4.d	.
8g)	.
(4.f#	.
8a)	.
=163	=163
(8aL	.
8g)	.
8g	.
8g	.
8gL	.
(8g	.
8a	.
8b-)	.
=164	=164
(4..b-	<
16a)	[
!LO:TX:t=piu cresc.	!
(4g#	.
4g#)	.
=165	=165
!LO:TX:t=dim.	!
(4b-	.
8a	.
8g	.
4f	.
8g	.
8a)	.
=166	=166
(4.g	p
8e)	.
(4.f	.
8B)	.
*clefF4	*
=167	=167
(4.GG	.
8EE)	.
(8FFL	.
8DD	.
8F	.
8BB)	.
=168	=168
4C	.
4r	.
(8cL	.
16d	.
16c	.
8BL	.
16c	.
16d)	.
=169	=169
(4e	.
4d	.
4c	.
4G)	.
=170	=170
!LO:TX:t=cresc.	!
4r	<
4C	.
4r	.
4CC	.
=171	=171
4r	.
4F	.
4r	.
4GG	.
=172	=172
(8CCL	p
16d	.
16c	.
!LO:TX:t=dolce	!
!LO:TX:t=dolce	!
8B	.
16c	.
16d)	.
*clefC4	*
(8eL	.
16f	.
16e	.
8dL	.
16e	.
16f)	.
=173	=173
(4e	.
4d	.
4c	.
8.GL	.
16F)	.
=174	=174
!LO:TX:t=cresc.	!
(8EL	<
*clefF4	*
16C	.
16D	.
8EL	.
16F	.
16G	.
8AL)	.
(16A	.
16B	.
[4c)	.
=175	=175
(8cL	.
16d	.
16e	.
[4f)	.
8fL	.
8FF	.
8F	.
8F	.
=176	=176
16FLL	f
!LO:TX:t=non legato	!
16E	.
16D	.
16C	.
16BBLL	.
16C	.
16D	.
16E	.
16FLL	.
16E	.
16D	.
16C	.
16BBLL	.
16AA	.
16GG	.
16FF	.
=177	=177
16EELL	.
16FF	.
16GG	.
16AA	.
16BBLL	.
16C	.
16D	.
16E	.
[2AA	ff
=178	=178
4AA	p
(4AA	.
4BB	.
4D	.
=179	=179
4E)	.
4r	.
*^	*
(4E	2GG	.
4D)	.	.
*v	*v	*
=180	=180
(16DLL	.
16C	.
16BB	.
16C	.
!LO:TX:t=cresc.	!
16BBLL	<
16C	.
16BB	.
16AA)	.
(16AALL	.
16GG	.
16FF#	.
16GG)	.
(16GGLL	.
16FF	.
16EE	.
16DD)	.
=181	=181
(16FFLL	.
16EE	.
16DD	.
16CC)	.
(16CLL	.
16BB	.
16AA	.
16GG)	.
4G	.
4GG	.
=182	=182
(8.CL	f
16D)	.
(8.FL	.
16A-)	.
(8.BL	.
16d)	.
(8.BL	.
16c)	.
=183	=183
(2FF#	p
2GG)	.
=184	=184
(8.CL	f
16BB)	.
(8.AA-L	.
16FF)	.
(8.DDL	.
16BB)	.
(8.A-L	.
16G)	.
=185	=185
(2A	p
2G)	.
=186	=186
!LO:TX:B:t=Rit.	!
(2F#	.
2G)	.
=187	=187
!LO:TX:t=cresc.	!
2FF#	.
2GG	.
=188	=188
!LO:TX:a:B:t=a tempo	!
8CL	p
8r	.
8AA	.
8r	.
8GGL	.
8r	.
8GG	f
8r	.
=189	=189
4r	.
4GG#	p
2r	.
=190	=190
4r	.
8GG#	.
8r	.
8AAL	.
8r	.
8G	f
8r	.
=191	=191
4r	.
4g	p
2r	.
=192	=192
!LO:TX:t=cresc.	!
8GL	<
8r	.
8F#	.
8r	.
8FL	.
8r	.
8E	.
8r	.
=193	=193
(1GG#	p
=194	=194
1AA)	.
=195	=195
(1F	.
=196	=196
1E)	.
=197	=197
(1D#	.
=198	=198
1E)	.
=199	=199
(1F	.
=200	=200
1E	.
=201	=201
1GG#	.
=202	=202
!LO:TX:t=cresc.	!
1AA)	<
=203	=203
4AA	f
(8.AL	.
16B	.
4c	.
8.BL	.
16A)	.
=204	=204
(4A	.
2G#	.
8.FL	.
16E)	.
=205	=205
(4E	.
8.FL	.
16E)	.
(4E	.
8.dL	.
16B)	.
=206	=206
(4d	>
2c)	]
4r	.
=207	=207
1r	.
=208	=208
1r	.
*clefC4	*
=209	=209
4r	.
!LO:TX:t=espressivo	!
(8.gL	.
16B)	.
(4d	.
4c)	.
*clefF4	*
=210	=210
4r	.
!LO:TX:t=cresc.	!
(8.CL	<
16FF)	.
4r	.
(8.CL	.
16EE)	.
=211	=211
4r	.
(8.CL	.
16DD)	.
4r	.
(8.CL	.
16DD#)	.
=212	=212
4FF	sf
4EE	.
4D	.
4C	.
=213	=213
4BB	f
4AA	.
4GG	.
4FF	.
=214	=214
4EE	.
8.r	.
*clefC4	*
16B	p
4e	.
4e	.
=215	=215
(4.e	.
16d	.
16c)	.
8cL	.
8c	.
(16cLL	.
16d	.
8c)	.
=216	=216
(4c	.
4B)	.
8BL	.
8B	.
(16BLL	.
16c	.
8B)	.
*clefF4	*
=217	=217
(4B	.
4A)	.
2r	.
=218	=218
4r	.
8r	.
8d#	.
(8d#L	.
8e)	.
4r	.
=219	=219
2r	.
4r	.
*clefC4	*
8r	.
!LO:TX:t=cresc.	!
8g	<
=220	=220
(8.gL	.
16f)	.
8f	.
8g	.
(8.gL	.
16f)	.
8f	.
8f	.
=221	=221
(8.fL	.
16e)	.
(8.c#L	.
16d)	.
*clefF4	*
(8.dL	.
16c)	.
(8.cL	.
16B)	.
=222	=222
(8.FL	.
16E)	.
(8.EL	.
16D#)	[
(8.FL	f
16E)	.
8EL	>
8E	.
=223	=223
1r	]
=224	=224
2r	.
(2E	p
=225	=225
2AA	.
4F#	.
8G#	.
8A)	.
=226	=226
(4G#	.
2BB	.
4B)	.
=227	=227
4E	.
4r	.
*clefC4	*
(8d#L	.
8e)	.
(8eL	.
8f#)	.
=228	=228
4..g	<
16f#	[
!LO:TX:t=piu cresc.	!
(4e#	.
4e#)	.
=229	=229
!LO:TX:t=dim.	!
(4g	.
8f#	.
8e	.
4d	.
8e	.
8f#)	.
=230	=230
!LO:TX:t=teneramente	!
(4.e	.
8c#)	.
(4.d	.
8G#)	.
=231	=231
(4.e	.
8c)	.
(4.d	.
8e)	.
=232	=232
1f	pp
*clefF4	*
=233	=233
1r	.
=234	=234
1r	.
=235	=235
!LO:TX:t=cresc.	!
1AA	.
=236	=236
8FFL	f
(8F	.
8E	.
8F	.
8EL	.
8F)	.
8f	.
8F	.
=237	=237
8EEL	.
(8E	.
8D#	.
8E	.
8D#L	.
8E)	.
8e	.
8r	.
=238	=238
8EEL	.
(8E	.
8D#	.
8E	.
8D#L	.
8E)	.
8e	.
8E	.
=239	=239
8AAL	sf
(8A	.
8G#	.
8A	.
8G#L	.
8A)	.
8e	.
8E	.
=240	=240
8AAL	sf
(8A	.
8G#	.
8A	.
8G#L	.
8A)	.
8e	.
8E	.
=241	=241
8FFL	sf
(8F	.
8E	.
8F)	.
8fL	sf
(8F	.
8E	.
8F)	.
=242	=242
8DDL	sf
(8D	.
8C#	.
8D)	.
8eL	sf
(8E	.
8D#	.
8E)	.
=243	=243
8CC#L	p
(8C#	.
8AA	.
8C#)	.
!LO:TX:t=cresc.	!
8dL	<
(8D	.
8C#	.
8D)	.
=244	=244
8EEL	.
(8E	.
8D#	.
8E)	.
8eL	.
(8E	.
8D#	.
8E)	.
=245	=245
8CC#L	f
(8C#	.
8AA	.
8C#)	.
!LO:TX:t=piu f	!
8dL	.
(8D	.
8C#	.
8D)	.
=246	=246
8EEL	.
(8E	.
8D#	.
8E)	.
8eL	.
(8E	.
8D#	.
8E)	.
*clefC4	*
=247	=247
4r	.
(8.aL	ff
16b	.
4cc	.
8.bL	.
16a)	.
=248	=248
(4a	>
8.g#L	.
16a	.
4b	.
8.aL	.
16g)	.
=249	=249
[1f	p
=250	=250
(4f	.
2e)	.
*clefF4	*
[4c#	.
=251	=251
!LO:TX:t=morendo	!
(4c#	.
2d	.
[4B)	.
=252	=252
(8BL	pp
4.c)	.
!LO:TX:t=sempre pp	!
(8CL	.
4.D)	.
=253	=253
(8DDL	.
[4.EE)	.
2EE	.
=254	=254
!LO:TX:t=sempre pp	!
(16DD#LL	.
16EE	.
16DD#	.
16EE	.
16DD#LL	.
16EE	.
16DD#	.
16EE	.
16DD#LL	.
16EE	.
16DD#	.
16EE	.
16DD#LL	.
16EE	.
16DD#	.
16EE)	.
=255	=255
(16DD#LL	.
16EE	.
16DD#	.
16EE	.
16DD#LL	.
16EE	.
16DD#	.
16EE	.
16DD#LL	.
16EE	.
16DD#	.
16EE	.
16DD#LL	.
16EE	.
16DD#	.
16EE)	.
=256	=256
(16DD#LL	.
16EE	.
16DD#	.
16EE	.
16DD#LL	.
16EE	.
16DD#	.
16EE	.
16DD#LL	.
16EE	.
16DD#	.
16EE	.
16DD#LL	.
16EE	.
16DD#	.
16EE)	.
=257	=257
!LO:TX:t=cresc.	!
(16DD#LL	<
16EE	.
16DD#	.
16EE	.
16DD#LL	.
16EE	.
16DD#	.
16EE	.
16DD#LL	.
16EE	.
16DD#	.
16EE	.
16DD#LL	.
16EE	.
16DD#	.
16EE)	.
=258	=258
4AA	f
4GG	.
4FF#	.
4FF	.
=259	=259
4EE	.
4EE	.
4E	.
4EE	.
=260	=260
4AA	.
4GG	.
4FF#	.
4FF	.
=261	=261
4EE	.
4EE	.
4E	.
4e	.
=262	=262
4A	.
4r	.
4E	.
4r	.
=263	=263
4A	.
4r	.
4E	.
4r	.
=264	=264
4AA	.
4r	.
2r	.
=265!|:	=265!|:
*k[f#c#g#]	*
*A:	*
*M3/4	*
!LO:TX:a:B:t=Allegro ma non tanto	!
(4GG#	p
4AA	.
4C#)	.
=266	=266
(4C#	.
4D	.
4F#)	.
=267	=267
(4AA#	.
4C#	.
4D#)	.
=268	=268
(4D#	.
4E	.
4G#)	.
=269	=269
2.r	.
=270	=270
2.r	.
=271	=271
(4AA#	p
4BB	.
4D)	.
=272	=272
(4D#	.
4E	.
4G#)	.
=273	=273
2.r	.
=274	=274
2.r	.
=275	=275
2.r	.
=276	=276
(4D#	pp
4E	.
4G#)	.
=277	=277
(4DD#	pp
4EE	.
4GG#)	.
=278	=278
(4GG#	.
4AA	.
4C#)	.
=279	=279
2.r	.
=280	=280
2.r	.
=281	=281
2.r	.
=282	=282
2.r	.
=283	=283
2.r	.
=284	=284
4r	.
4r	.
4E	.
=285	=285
4BB	.
4B	.
4BB	f
=286	=286
4BB	.
4E	.
4r	.
=287:|!	=287:|!
4BB	.
4E	.
(4GG	p
=288	=288
4FF#	.
4GG	.
4BB)	.
=289	=289
(4BB	.
4C	.
4E)	.
=290!|:	=290!|:
2.r	.
=291	=291
(4BB	.
4C	.
4c)	.
=292||	=292||
*k[]	*
*C:	*
(4F	.
4G	.
4B)	.
*clefC4	*
=293	=293
(2e	<
8dL	[
8c)	>
=294	=294
(8cL	]
8A)	.
4B	.
4r	.
=295	=295
(2e	<
8dL	[
8c)	>
=296	=296
!LO:TX:t=cresc.	!
(2B-	]
8AL	.
8G)	.
*clefF4	*
=297	=297
(2AA	f
8GGL	.
8FF)	.
=298	=298
(8EE-L	.
8CC)	.
4DD	.
4r	.
=299	=299
(4FF#	.
4GG	.
4BB-)	.
=300	=300
(4BB	.
4C)	.
(8DL	p
8E)	.
=301	=301
(4E	.
4F	.
4A)	.
=302	=302
!LO:TX:t=cresc.	!
(2B-	<
8GL	.
8F)	.
=303	=303
(2E	.
8DL	.
8C)	.
=304	=304
(4.F	f
8E	.
8D	.
8C)	.
=305	=305
(8BB-L	.
8AA	.
8GG	.
8FF)	.
4C	.
=306	=306
2.r	.
=307	=307
2.r	.
=308	=308
2.r	.
=309	=309
4r	.
4r	.
4GG	pp
=310	=310
!LO:TX:t=cresc.	!
(8AAL	<
8FF#)	.
4GG	.
4r	.
=311	=311
(8AAL	.
8FF#)	.
4GG	.
4r	.
=312	=312
(8AAL	.
8FF#)	.
4GG	.
4r	.
=313	=313
(8AAL	.
8FF#)	.
4GG	.
4r	.
=314	=314
(2f	.
8eL	.
8d)	.
=315	=315
(2g	.
8fL	.
8e)	[
=316	=316
(4BB	p
4C	.
4E)	.
=317	=317
2.r	.
*clefC4	*
=318	=318
(4c#	.
4d	.
4f)	.
=319	=319
(2g	.
8fL	.
8e)	.
*clefF4	*
=320	=320
(2G	.
!LO:TX:t=cresc.	!
8FL	<
8E)	.
=321	=321
(4BB	.
4C	.
4E	.
=322	=322
4G#	.
4A)	.
4r	.
=323	=323
4r	.
4r	.
(4CC	.
=324	=324
4EE	.
4FF)	[
4r	.
=325	=325
4r	.
4r	.
*clefC4	*
(4c	p
=326	=326
4e	.
4f)	.
(4c#	f
=327	=327
4e	.
4f)	.
4r	.
=328	=328
4r	.
4r	.
*clefF4	*
(8FL	f
8E)	.
=329	=329
(8EL	.
8C#)	.
4D	.
4r	.
=330	=330
4r	.
4r	.
(8CL	f
8BB)	.
=331	=331
(8BBL	.
8GG#)	.
4AA	.
4r	.
=332	=332
4r	.
4r	.
!LO:TX:t=dim.	!
(8C#L	.
8BB)	.
=333	=333
(8BBL	.
8GG#)	.
4AA	.
(8C#L	pp
8BB)	.
=334	=334
(8dL	<
8B)	.
4c#	.
(8d#L	.
8f#)	.
=335	=335
2G#	.
4A	[
=336||	=336||
*k[f#c#g#]	*
*A:	*
(4GG#	p
4AA	.
4C#)	.
=337	=337
(4C#	.
4D	.
4F#)	.
=338	=338
(4AA#	.
4BB	.
4D)	.
=339	=339
(4D#	.
4E	.
4G#)	.
=340	=340
2.r	.
=341	=341
4r	.
(8G#L	pp
8E#)	.
4F#	.
=342	=342
4r	.
(8C#L	.
8AA#)	.
4BB	.
=343	=343
4r	.
(8F#L	.
8D#)	.
4E	.
=344	=344
(4E#	.
4F#	.
4A)	.
=345	=345
(4A#	pp
4B	.
4d)	.
=346	=346
(4F#	.
4G#	.
4B)	.
=347	=347
(4GG#	.
4AA	.
4C#)	.
=348	=348
!LO:TX:t=cresc.	!
(2AA	<
8GG#L	.
8FF#)	.
=349	=349
(8EEL	.
8CC#)	.
4DD	.
4r	.
=350	=350
(8FF#L	.
8DD#)	.
4EE	.
4r	.
=351	=351
(8DL	.
8BB)	.
4C#	.
4r	.
=352	=352
2.r	[
=353	=353
(4c#	.
4d	.
4f#)	.
=354	=354
2.r	.
=355	=355
(4d#	.
4e	.
4g#)	.
=356	=356
!LO:TX:t=cresc.	!
(4BB#	<
4C#	.
4E)	.
=357	=357
(4E#	.
4F#	.
4A)	.
=358	=358
(4CC#	.
4DD	.
4FF#)	.
=359	=359
(4AA#	.
4BB	.
4EE)	.
=360	=360
(4GG#	.
4AA)	[
*clefC4	*
(8f#L	p
8e)	.
=361	=361
(8eL	.
8c#)	.
4d	.
!LO:TX:t=cresc.	!
(8eL	<
8d)	.
=362	=362
(8dL	.
8B)	.
4c#	.
*clefF4	*
4EE	.
=363	=363
4EE	.
4E	.
4EE	f
=364	=364
4EE	.
4AA	.
(4AA	p
=365	=365
4GG#	.
4AA	.
4C)	.
=366	=366
(4BB	.
4C	.
4E)	.
=367	=367
(4FF#	.
4GG	.
4C)	.
=368	=368
(4BB	.
4C	.
4E)	.
=369:|!	=369:|!
4EE	.
4AA	.
4r	.
=370	=370
4r	.
4r	.
*clefC4	*
(8c#L	pp
8B)	.
=371	=371
(8BL	.
8G#)	.
4A	.
4r	.
=372	=372
4r	.
4r	.
(8g#L	.
8f#)	.
=373	=373
(8f#L	.
8d#)	.
4e	.
!LO:TX:t=sempre	!
(8f#L	.
8e)	.
=374	=374
(8eL	pp
8c#)	.
4d#	.
*clefF4	*
(8D#L	.
8E)	.
=375	=375
(8E#L	.
8G#)	.
4F#	.
*clefC4	*
(8g#L	.
8f#)	.
=376	=376
(8f#L	.
8d#)	.
4e	.
(8G#L	.
8A)	.
=377	=377
(8A#L	.
8c#)	.
4B	.
*clefF4	*
!LO:TX:t=cresc.	!
(4EE	<
=378	=378
4GG#	.
4BB)	.
(8EL	.
8D)	.
=379	=379
(8C#L	.
8BB)	.
(8AAL	.
8GG#)	[
4GG#	.
*clefC4	*
=380	=380
(2f#	p
8eL	.
8d)	.
=381	=381
(8dL	.
8B)	.
4c#	.
4r	.
=382	=382
(2d	<
8c#L	[
8B)	>
=383	=383
(8BL	]
8G#)	.
4A	.
4r	.
=384	=384
2.r	.
=385	=385
!LO:TX:t=cresc.	!
(2e	<
8dL	.
8c#)	.
*clefF4	*
=386	=386
(2E	.
8DL	.
8C#)	[
=387	=387
(8BBL	f
8GG#)	.
4AA	.
4r	.
=388	=388
4r	.
(8BL	.
8G#)	.
4A	.
=389	=389
4E	p
4AA	.
==	==
4r	.
=390	=390
2.r	.
=391	=391
2.r	.
=392	=392
2.r	.
=393	=393
2.r	.
=394	=394
2.r	.
=395	=395
2.r	.
=396	=396
2.r	.
=397	=397
2.r	.
=398	=398
2.r	.
=399	=399
2.r	.
=400	=400
2.r	.
=401	=401
2.r	.
=402	=402
4r	.
4r	.
(8AAL	p
8C#	.
=403	=403
8EL	.
8A	.
8c#	.
8e)	.
[4AA	.
=404	=404
[2.AA	.
=405	=405
[2.AA	.
=406	=406
[2.AA	.
=407	=407
[2.AA	.
=408	=408
[2.AA	.
=409	=409
[2.AA	.
=410	=410
[2.AA	.
=411	=411
2AA	.
4E#	pp
=412	=412
4E#	.
4E#	.
4F#	.
=413	=413
4F#	.
4F#	.
4D#	.
=414	=414
4D#	.
4D#	.
4E	.
=415	=415
4E	.
4E	.
4F#	.
=416	=416
4F#	.
4F#	.
4F#	.
=417	=417
4G#	.
4G#	.
4A	.
=418	=418
4B	.
4B	.
4BB	.
=419	=419
4E	.
4E	.
4E#	.
=420	=420
4E#	.
4E#	.
4A	.
=421	=421
4A	.
4A	.
4D#	.
=422	=422
4D#	.
4D#	.
4G#	.
=423	=423
4G#	.
4E	.
!LO:TX:t=cresc.	!
4AA#	<
=424	=424
4A#	.
4A#	.
(8BL	.
8A#	.
=425	=425
8BL	.
8c#	.
8d	.
8B)	.
4GG#	.
=426	=426
4G#	.
4G#	.
(8AL	.
8G#	.
=427	=427
8AL	.
8B	.
8c#	[
8A)	.
4e	p
=428	=428
4e	.
4e	.
4d#	.
=429	=429
4d#	.
4d#	.
4e	.
=430	=430
4e	.
4e	.
4B	.
=431	=431
4B	.
4B	.
4e	.
=432	=432
4e	.
4e	.
4d#	.
=433	=433
4d#	.
4d#	.
4e	.
=434	=434
4e	.
4e	.
4B	.
=435	=435
4B	.
4B	.
*clefC4	*
4e#	.
=436	=436
4e#	.
4e#	.
4a	.
=437	=437
4a	.
4a	.
4d#	.
=438	=438
4d#	.
4d#	.
4g#	.
=439	=439
4g#	.
4g#	.
4f#	.
=440	=440
4f#	.
4f#	.
4f#	.
=441	=441
4g#	.
*clefF4	*
4G#	.
4A	.
=442	=442
4B	.
4B	.
4B	.
=443	=443
4E	.
4GG#	.
!LO:TX:t=poco cresc.	!
4AA#	<
=444	=444
4A#	.
4A#	.
4r	.
=445	=445
4r	.
4r	.
4GG#	.
=446	=446
4G#	.
4G#	.
4r	[
=447	=447
4r	.
4r	.
4A	p
=448	=448
4A	.
4A	.
4E	.
=449	=449
4E	.
4E	.
4AA	.
=450	=450
4AA	.
4AA	.
4E	.
=451	=451
4E	.
4E	.
4AA	.
=452	=452
4AA	.
4AA	.
4EE	.
=453	=453
4EE	.
4EE	.
4AA	.
=454	=454
4AA	.
4AA	.
4E	.
=455	=455
4E	.
4E	.
(8f#L	.
8e#	.
=456	=456
8f#L	.
8e	.
8dL	.
8c#)	.
4r	.
=457	=457
2.r	.
=458	=458
4r	.
4r	.
(8c#L	.
8B	.
=459	=459
8c#L	.
8B	.
8A	.
8c#)	.
4r	.
=460	=460
2.r	.
=461	=461
2.r	.
=462	=462
2.r	.
=463	=463
4r	.
4r	.
!LO:TX:t=cresc.	!
4AA#	<
=464	=464
4AA#	.
4AA#	.
4D	.
=465	=465
4D	.
4D	.
4GG#	.
=466	=466
4GG#	.
4GG#	.
4C#	.
=467	=467
4C#	.
4C#	.
4F#	.
=468	=468
4F#	.
4F#	.
4D	.
=469	=469
4C#	.
4C#	.
4D	.
=470	=470
4E	.
4E	.
4E	.
=471	=471
4A	.
4A	.
4F#	f
=472	=472
4F#	.
4D	.
4D	p
=473	=473
4C#	.
4C#	.
4D	.
=474	=474
4E	.
4E	.
4EE	.
=475	=475
4AA	.
4CC#	f
4CC#	.
=476	=476
2.CC#	sf
=477	=477
2.DD#	sf
=478	=478
4AA	.
4GG#	.
4FF#	.
=479	=479
4GG#	.
4GG#	.
4GG#	.
=480	=480
2.BB#	sf
=481	=481
2.C#	sf
=482	=482
4AA	.
4FF#	.
4GG#	.
=483	=483
4CC#	.
4CC#	.
4CC#	.
=484	=484
2.CC#	sf
=485	=485
2.DD#	sf
=486	=486
4AA	.
4GG#	.
4FF#	.
=487	=487
4GG#	.
4GG#	.
4GG#	.
=488||	=488||
*M2/2	*
!LO:TX:t=L'istesso tempo	!
2BB#	.
2BBB#	.
=489	=489
2CC#	.
2C#	.
=490	=490
4AA	.
4FF#	.
4GG#	.
4GG#	.
=491	=491
4C#	.
4c#	.
[2AA	p
=492||	=492||
*M3/4	*
[2.AA	.
=493	=493
2AA	.
8AAL	.
8C#	.
=494	=494
!LO:TX:t=cresc.	!
8EL	<
8A	.
8c#	.
8e	.
[4AA	.
=495	=495
[2.AA	.
=496	=496
[2.AA	.
=497	=497
[2.AA	.
=498	=498
[2.AA	.
=499	=499
[2.AA	.
=500	=500
[2.AA	.
=501	=501
[2.AA	.
=502	=502
[2.AA	.
=503	=503
[2.AA	.
=504	=504
[2.AA	.
=505	=505
!LO:TX:t=dim.	!
[2.AA	>
=506	=506
[2.AA	p
=507	=507
!LO:TX:t=piu p	!
2AA	.
(8AAL	pp
8C#	.
=508	=508
8EL	.
!LO:TX:t=D.C. al Fine	!
8A	.
8c#	.
8e)	.
4AA	.
=509	=509
2.r	.
==510	==510
*k[]	*
*C:	*
*M4/4	*
!LO:TX:a:B:t=Molto Adagio	!
2r	.
=511	=511
1r	.
=512	=512
!LO:TX:t=sotto voce	!
(4CC	.
4AA)	.
2FF	.
=513	=513
2AA	.
2C	.
=514	=514
2D	.
2C	.
=515	=515
!LO:TX:t=cresc.	!
(2AA	<
4GG	.
4C)	.
=516	=516
2D	p
2r	.
=517	=517
2r	.
(4G	.
4BB	.
=518	=518
4C	.
4D)	.
2C	.
=519	=519
2FF	<
2EE	.
=520	=520
2FF	.
2GG	.
=521	=521
2AA	.
(4BB	>
4GG)	>
=522	=522
2CC 2GG	]
(4G	]
4C	.
=523	=523
4D	.
4E	.
4F	.
4E	.
=524	=524
4D	.
4C)	.
2AA	.
=525	=525
!LO:TX:t=cresc.	!
!LO:TX:t=cresc.	!
2AA	<
2E	.
=526	=526
2C	.
2F	.
=527	=527
2D	.
2C	.
=528	=528
2GG	f
2r	[
=529	=529
2r	.
(4G	p
4C	.
=530	=530
4D	.
4E)	.
2AA	.
=531	=531
!LO:TX:t=cresc.	!
2AA	.
2GG	<
=532	=532
2C	.
2FF	.
=533	=533
2GG	.
2CC	>
=534	=534
2FF	p
2r	.
=535	=535
2r	.
(4AA	<
4F	.
=536	=536
4G	.
4GG)	[
2AA	p
=537	=537
!LO:TX:t=cresc.	!
!LO:TX:t=cresc.	!
2AA	<
2GG	.
=538	=538
2C	.
2FF	.
=539	=539
2D	p
2GG	.
=540	=540
!LO:TX:t=cresc.	!
(4AA	.
4AA	.
4AA	.
4AA)	.
=541||	=541||
*k[f#c#]	*
*D:	*
*M3/8	*
8DDL	f
8D	.
8r	.
=542	=542
8C#L	p
8c#	.
8r	.
=543	=543
8BBL	f
8B	.
8r	.
=544	=544
8AAL	p
8A	.
8r	.
=545	=545
8GGL	f
8G	.
8r	.
=546	=546
8F#L	p
8f#	.
[8BBJ	.
=547	=547
!LO:TX:t=cresc.	!
(8BBL	<
8C#	.
8D)	.
=548	=548
(8EL	.
8GG#	.
8AA)	.
=549	=549
8DDL	f
8D	.
8r	.
=550	=550
8C#L	p
8c#	.
8r	.
=551	=551
8BBL	f
8B	.
8r	.
=552	=552
8AAL	p
8A	.
16r	.
16A	.
=553	=553
8GGL	f
8G	.
8r	.
=554	=554
8FF#L	p
8F#	.
[8BBJ	.
=555	=555
!LO:TX:t=cresc.	!
(8BBL	<
8C#	.
8D	.
=556	=556
8EL	.
8GG#	[
16AA	>
16BB)	.
=557	=557
16C#LL	p
16c#	.
16r	.
16B	.
16r	.
16c#	.
=558	=558
16r	.
16D	.
16r	.
16E	.
16r	.
16D	.
=559	=559
16AALL	.
16A	.
16r	.
16B	.
16r	.
16c#	.
=560	=560
16r	.
16d	.
16r	.
16e	.
16r	.
16d	.
=561	=561
16r	.
32G	pp
32G	.
16r	.
32G	.
32G	.
16r	.
32G	.
32G	.
=562	=562
16r	.
32A	.
32A	.
16r	.
32A	.
32A	.
16r	.
32A	.
32A	.
=563	=563
16r	.
!LO:TX:t=cresc.	!
32C#	<
32C#	.
16r	.
32C#	.
32C#	.
16r	.
32C#	.
32C#	.
=564	=564
16r	.
32C#	.
32C#	.
16r	.
32C#	.
32C#	.
16r	.
32GG	.
32GG	[
=565	=565
(8GGL	rfz
8GG#	.
[8AA)	.
=566	=566
(8AAL	.
8CC#	.
16DD	>
16AA)	.
=567	=567
16AALL	p
16A	.
16r	.
16B	.
16r	.
16c#	.
=568	=568
16r	.
16D	.
16r	.
16E	.
16r	.
16D	.
=569	=569
16ALL	.
16AA	.
16r	.
16A	.
16r	.
16A	.
=570	=570
16r	.
16d	.
16r	.
16e	.
16r	.
16d	.
=571	=571
16r	.
32G	pp
32G	.
16r	.
32G	.
32G	.
16r	.
32G	.
32G	.
=572	=572
16r	.
32A 32g	.
32A 32g	.
16r	.
32A 32g	.
32A 32g	.
16r	.
32A 32g	.
32A 32g	.
=573	=573
16r	.
!LO:TX:t=cresc.	!
32A 32g	<
32A 32g	.
16r	.
32A 32g	.
32A 32g	.
16r	.
32A 32g	.
32A 32g	.
=574	=574
16r	.
32A 32g	.
32A 32g	.
16r	.
32A 32g	.
32A 32g	.
16r	.
32GG	.
32GG	.
=575	=575
(8GGL	rfz
8GG#	.
[8AA)	.
=576	=576
(8AAL	.
8CC#	.
16DD	.
16D)	>
=577	=577
(16CLL	p
16AA#	.
16BB	.
16C	.
16D	.
16C)	.
=578	=578
(16CLL	.
16AA#	.
16BB	.
16C#	.
16D	.
16BB)	.
=579	=579
(16BBLL	.
16GG#	.
16AA	.
16C#	.
16D	.
16AA)	.
=580	=580
(16AALL	.
16FF#	.
16GG	.
16C#	.
16D	.
16GG)	.
=581	=581
(16GGLL	.
16EE#	<
16FF#	.
16EE	[
16DD	>
16D)	.
=582	=582
(16DDLL	]
16D	.
16DD	.
16D	.
16DD	.
16D)	.
=583	=583
(16DDLL	.
16D	.
16DD	.
16D	.
16DD	.
16D)	.
=584	=584
(16DDLL	.
16D	.
16DD	.
16D	.
16DD	.
16D)	.
=585	=585
!LO:TX:t=cresc.	!
(16DDLL	<
16D	.
16FF#	.
16D	.
16GG#	.
16D)	.
=586	=586
(16AALL	.
16D	.
16AA	.
16D	>
16AA	.
16C#)	]
=587	=587
(8AAL	p
!LO:TX:t=cresc.	!
8DD	<
8EE	.
=588	=588
8FF#L	.
8GG#	.
8AA)	>
=589	=589
(32DLLL	p
32F#	.
32A	.
32G	.
!LO:TX:t=cresc.	!
32F#LLL	<
32E	.
32D	.
32C	.
32BBLLL	.
32G	.
32D	.
32BB)	.
=590	=590
(32AALLL	.
32F#	.
32D	.
32AA	.
32GG#LLL	.
32F	.
32D	.
32GG#	[
32GGLLL	>
32AA	.
32GG	]
32EE)	.
=591	=591
(32DDLLL	p
32AA	.
32FF#	.
32DD)	.
!LO:TX:t=piu p	!
8DDL	.
(8DD	.
=592	=592
8DDL)	.
8r	.
(8E	pp
=593	=593
8EL)	.
8r	.
8F	.
=594||	=594||
*M4/4	*
!LO:TX:a:B:t=Molto Adagio	!
4r	.
4.F	.
8r	.
4r	.
=595	=595
*k[]	*
*C:	*
2r	.
(4C	.
[4A)	.
=596	=596
8AL	.
8G	.
4.c	.
(8c	.
4F)	.
=597	=597
8r	.
(8AA	.
4A)	.
(8cL	.
8C	.
4c)	.
=598	=598
(8dL	.
8D	.
4.d)	.
(8C	.
4c)	.
=599	=599
!LO:TX:t=cresc.	!
(8AL	<
8AA	.
4AA	.
8GL	.
8GG)	.
(4c	.
=600	=600
8dL	p
8D	.
4.d)	.
(8e	.
4f)	.
=601	=601
8r	.
8gJ	.
(8fL	.
8G)	.
(4G	.
4BB)	.
=602	=602
8r	.
(8C	.
4.D)	.
!LO:TX:t=cresc.	!
(8C	<
4c)	.
=603	=603
8r	.
(8c	.
4.F)	.
(8F	.
4E)	.
=604	=604
8r	.
(8FF	.
4.F)	.
(8GG	.
4G)	.
=605	=605
8r	.
(8AA	.
4.A)	.
(8GG	>
4G)	.
=606	=606
8r	]
8G	p
4C	.
*clefC4	*
(4g	.
[4c)	.
=607	=607
(8cL	.
8d	.
[4e)	.
(8eL	.
8f	.
4g)	.
*clefF4	*
=608	=608
(8GL	.
8C	.
4.c)	.
(8B	.
4A)	.
=609	=609
8r	<
!LO:TX:t=cresc.	!
8E	.
8AA	.
8A	.
8eL	.
8E	.
4e	.
=610	=610
8r	.
8C	.
4.c	.
8c	.
4f	.
=611	=611
8r	.
8e	.
4.d	.
8c	.
[4G	.
=612	=612
8GL	f
8AA	.
4.GG	[
(8F	p
4E)	.
=613	=613
8r	.
(8B	.
4c)	.
(4G	.
4C	.
=614	=614
8r	.
8D	.
4E)	.
(8AL	.
8AA	.
[4A)	.
=615	=615
!LO:TX:t=cresc.	!
8AL	<
(8a	.
4A)	.
(8GL	.
8GG)	.
[4G	.
=616	=616
(8GL	.
8C	.
4.c)	.
(8G	.
4F)	.
=617	=617
(8GL	.
8GG	.
4.G)	.
(8C	>
[4c)	.
=618	=618
(8cL	p
8F)	.
4f	.
2r	.
=619	=619
2r	.
(4AA	.
4F)	.
=620	=620
8r	.
(8G	.
4g)	.
(8a	.
8A	.
4a)	.
=621	=621
!LO:TX:t=cresc.	!
8r	<
(8A	.
4a)	.
(8gL	.
8G	.
4g)	.
=622	=622
8r	.
(8C	.
4.c)	.
(8c	.
4f)	.
=623	=623
(8dL	p
8D	.
4d)	.
(8GL	.
8GG	.
4G)	.
=624	=624
!LO:TX:t=cresc.	!
(8AL	.
8AA)	.
[2A	.
(8A	.
8AA)	.
=625||	=625||
*k[f#c#]	*
*D:	*
*M3/8	*
!LO:TX:t=Andante	!
8DDL	f
8D	.
8r	.
=626	=626
8C#L	p
8c#	.
8r	.
=627	=627
8BBL	f
8B	.
8r	.
=628	=628
8AAL	p
8A	.
8r	.
=629	=629
8GGL	f
8G	.
8r	.
=630	=630
8F#L	p
8f#	.
[8BBJ	.
=631	=631
!LO:TX:t=cresc.	!
8BBL	<
8C#	.
8D	.
=632	=632
8EL	.
8GG#	>
8AA	.
=633	=633
8DDL	f
8D	.
8d	.
=634	=634
8r	.
8CC#	p
8C#	.
=635	=635
8r	.
8BB	f
8B	.
=636	=636
8r	.
8AA	p
8A	.
=637	=637
8r	.
8GG	f
8G	.
=638	=638
8r	.
8F#J	p
16BBLL	.
[16B	.
=639	=639
!LO:TX:t=cresc.	!
16BLL	<
8B	.
8c#	.
16d	.
=640	=640
(8eL	.
8G#	[
16A	>
16B)	.
=641	=641
16c#LL	p
16C#	.
16r	.
16B	.
16r	.
16c#	.
=642	=642
16r	.
16d	.
16r	.
16E	.
16r	.
16D	.
=643	=643
16ALL	.
16AA	.
16r	.
16B	.
16r	.
16c#	.
=644	=644
16r	.
16d	.
16r	.
16e	.
16r	.
16d	.
=645	=645
16r	.
32G	pp
32G	.
16r	.
32G	.
32G	.
16r	.
32G	.
32G	.
=646	=646
16r	.
32A 32g	.
32A 32g	.
16r	.
32A 32g	.
32A 32g	.
16r	.
32A 32g	.
32A 32g	.
=647	=647
16r	.
!LO:TX:t=cresc.	!
32A 32g	<
32A 32g	.
16r	.
32A 32g	.
32A 32g	.
16r	.
32A 32g	.
32A 32g	.
=648	=648
16r	.
32A 32g	.
32A 32g	.
16r	.
32A 32g	.
32A 32g	.
16r	.
32GG	.
32GG	[
=649	=649
(8GGL	sf
8GG#	.
[8AA)	.
=650	=650
(8AAL	.
8CC#	.
8DD)	.
=651	=651
!LO:TX:t=pizz.	!
16AALL	p
16A	.
16B	.
16BB	.
16C#	.
16c#	.
=652	=652
16DLL	.
16d	.
16e	.
16E	.
16D	.
16d	.
=653	=653
16AALL	.
16A	.
16B	.
16BB	.
16C#	.
16c#	.
=654	=654
16DLL	.
16d	.
16e	.
16E	.
16d	.
16D	.
=655	=655
32GLLL	pp
16r	.
!LO:TX:t=arco	!
32GG	.
32GGLLL	.
16r	.
32GG	.
32GGLLL	.
16r	.
32GG	.
=656	=656
32AALLL	.
16r	.
32AA	.
32AALLL	.
16r	.
32AA	.
32AALLL	.
16r	.
32AA	.
=657	=657
!LO:TX:t=cresc.	!
32CC#LLL	<
16r	.
32CC#	.
32CC#LLL	.
16r	.
32CC#	.
32CC#LLL	.
16r	.
32CC#	.
=658	=658
32CC#JJJ	.
*clefC4	*
32gLLL	.
32g	.
16r	.
32g	.
32g	.
16r	.
32gJJJ	.
*clefF4	*
32GGLLL	.
32GG	[
=659	=659
(16GGLL	sf
16GG#)	.
(16GG#LL	.
16AA)	.
[8AAJ	.
=660	=660
(8AAL	.
8CC#	.
16DDLL	>
16D)	.
=661	=661
(16CLL	p
16AA#	.
16BB	.
16C	.
16D	.
16C)	.
=662	=662
(16CLL	.
16AA#	.
16BB	.
16C#	.
16D)	.
16BB	.
=663	=663
(16BBLL	.
16GG#	.
16AA	.
16C#	.
16D	.
16AA)	.
=664	=664
(16AALL	.
16FF#	.
16GG	.
16C#	.
16D	.
16GG)	.
=665	=665
(16GGLL	<
16EE#	.
16FF#	.
16EE	>
16DD	.
16D)	]
=666	=666
(16DDLL	.
16D	.
16DD	.
16D	.
16DD	.
16D)	.
=667	=667
(16DDLL	.
16D	.
16DD	.
16D	.
16DD	.
16D)	.
=668	=668
(16DDLL	.
16D	.
16DD	.
16D	.
16DD	.
16D)	.
=669	=669
(16DDLL	.
16D	.
16FF#	.
16D	.
16GG#	.
16D)	.
=670	=670
(16AALL	.
16D	.
16AA	.
16D	.
16AA	.
16E)	.
=671	=671
(8AAL	p
!LO:TX:t=cresc.	!
8DD	<
8EE	.
=672	=672
8FF#L	.
8GG#	.
8AA)	>
=673	=673
32DDLLL	p
(32F#	.
32A	.
32G	.
!LO:TX:t=cresc.	!
32F#LLL	<
32E	.
32D	.
32C	.
32BBLLL	.
32G	.
32D	.
32BB	.
=674	=674
32AALLL	.
32F#	.
32D	.
32AA	.
32GG#LLL	.
32F	.
32D	.
32GG#	[
32GGLLL	>
32AA	.
32GG)	.
32EE	]
=675	=675
(32DDLLL	p
32AA	.
32FF#	.
32AA)	.
!LO:TX:t=piu p	!
8DDL	.
(8DD	.
=676	=676
8DDL)	.
8r	.
(8E	pp
=677	=677
8EL)	.
8r	.
8F	.
=678||	=678||
*k[]	*
*C:	*
*M4/4	*
!LO:TX:a:B:t=Molto adagio	!
4r	.
4.F	<
8r	[
4r	.
=679	=679
2r	.
!LO:TX:t=Mit innigster Empfindung	!
8r	.
(8C	.
[4A)	.
=680	=680
(16ALL	.
16G)	.
[8c	.
(16cLL	.
16d)	.
[8c	.
(8cL	.
8E	<
4F	.
=681	=681
4G	p
4F)	.
(4c	.
[4C)	.
=682	=682
(4C	.
2CC)	<
4C	[
=683	=683
1r	[
=684	=684
2r	.
*clefC4	*
2f	<
=685	=685
2f	p
2e	.
=686	=686
2d	.
2e	<
*clefF4	*
=687	=687
8r	[
!LO:TX:t=cresc.	!
(8GG	<
[4E)	.
(16ELL	.
16D)	.
[8G	.
(16GLL	.
16A)	.
[8G	.
=688	=688
(8GL	.
8C	.
8D	.
[8E)	.
(16ELL	.
16C)	.
[8D	.
(16DLL	.
16E)	.
[8D	.
=689	=689
(16DLL	.
16BB)	.
[8C	.
(16CLL	.
16D)	.
[8C	.
(16CLL	.
16AA)	.
[8BB	.
(16BBLL	.
16C)	.
8BB	.
=690	=690
!LO:TX:t=dim.	!
2C	>
2D	.
=691	=691
!LO:TX:t=p piu p	!
1AA	]
=692	=692
2D	pp
2r	.
=693	=693
1r	.
=694	=694
8r	.
(8CC	.
4AA)	.
!LO:TX:t=cresc.	!
2FF	.
=695	=695
2FF	p
2EE	.
=696	=696
2DD	.
2EE	.
=697	=697
2FF	.
!LO:TX:t=cresc.	!
2GG	<
=698	=698
8FFL	.
(8CC	.
[4AA)	.
(16AALL	.
16GG)	.
8C	[
4CC 4C	f
=699	=699
2CC 2C	sf
2BB	sf
=700	=700
2AA	sf
2BB	sf
=701	=701
2CC 2C	sf
2D	sf
=702	=702
[2CC [2C	sf
16CCLL 16C	.
16BB	.
[8C	.
16CLL	.
16D	.
8C	.
=703	=703
2CC 2C	sf
2D	sf
=704	=704
8r	.
!LO:TX:t=dim.	!
(8C	>
8D	.
[8E)	.
(16ELL	.
16C)	.
[8D	.
(16DLL	.
16E)	.
[8F	.
=705	=705
(8FL	.
8E	.
8F	.
[8G)	.
(16GLL	.
16E)	.
(8.F	.
16GLL)	.
8A	]
=706	=706
8r	.
(8CC	p
8DD	.
[8EE)	.
!LO:TX:t=piu p	!
(16EELL	.
16CC)	.
[8DD	.
(16DDLL	.
16EE)	.
8FF	.
=707	=707
(16GGLL	.
16A)	.
[8B	.
(16BLL	.
16c)	.
8d	.
4r	.
4C	<
=708	=708
2C	p
2GG	>
=709	=709
2r	]
2C	.
=710	=710
2C	.
!LO:TX:t=cresc.	!
2GG	.
=711	=711
2.CC 2.GG	sf
4CC 4GG	>
=712	=712
(2FF	p
[2EE)	.
=713	=713
8EEL	.
(8EE	.
4.DD	.
8D	.
4C)	.
=714	=714
[1CC [1C	.
=715	=715
[1CC [1C	.
=716	=716
8CCL 8C	.
(8CC	.
[4AA)	.
(16AALL	.
16GG)	.
[8C	.
(16CLL	.
16D)	.
8C	.
=717	=717
2D	.
[2C	.
=718	=718
!LO:TX:t=cresc.	!
4C	<
(4C	.
4C	.
4C)	.
=719	=719
2FF	p
2r	.
*clefC4	*
=720	=720
!LO:TX:t=piu p	!
[4f	.
(8f	.
8f)	.
[4f	.
(8f	.
8f)	.
=721	=721
2f	pp
2r	.
*clefF4	*
=722	=722
*k[f#c#g#]	*
*A:	*
!LO:TX:a:B:t=Alla Marcia, assai vivace	!
4r	.
[4AA	f
8.AAL	>
16C#	]
8BBL	p
16r	.
16AA	.
=723	=723
8GG#L	.
8r	.
8AA	.
8r	.
2r	.
=724	=724
8.AAL	f
16EE	.
[4CC#	.
(8.CC#L	>
16AA)	]
8FF#L	p
16r	.
16DD	.
=725	=725
8EEL	.
8r	.
8E	.
8r	.
2r	.
=726	=726
8.GG#L	.
16BB	.
4E	.
4r	.
4D	.
=727	=727
8.CC#L	.
16EE	.
4AA	.
4r	.
4FF#	.
=728	=728
4BB	.
[4B	.
!LO:TX:t=cresc.	!
8BL	<
(8B	.
8c#)	.
16r	.
16d#	.
=729	=729
8eL	f
8r	.
8BB	.
8r	.
8EEL	.
8r	.
4r	.
*clefC4	*
=730:|!|:	=730:|!|:
!LO:TX:t=dol.	!
(4.G#	.
8F#	.
8EL	.
8c#	.
8B)	.
16r	.
16A	.
=731	=731
(4.B	.
8A	.
8G#L	.
8e	.
8d)	.
16r	.
16B	.
=732	=732
!LO:TX:t=cresc.	!
8eL	<
8r	.
8g#	.
8r	.
8aL	.
8r	.
4r	.
=733	=733
(4.e	.
8d	.
8c#L	.
8a	.
8g)	.
16r	.
16e	.
*clefF4	*
=734	=734
8.AAL	f
16D	.
[4F#	sf
(8.F#L	.
16D)	.
8E	.
16r	.
16F#	.
=735	=735
8.BBL	.
16D	.
4F#	sf
8.GG#L	.
16BB	.
8.EL	sf
16GG#	.
=736	=736
4AA	f
8.AAL	sf
16C#	.
(8.EL	.
16C#)	.
8BBL	.
16r	.
16AA	.
=737	=737
8GG#L	.
8r	.
8AA	.
8r	.
2r	.
=738	=738
4C#	.
8.AAL	.
16EE	.
8.CC#L	.
16AA	.
8FF#	.
16r	.
16DD	.
=739	=739
8EEL	.
8r	.
8E	.
8r	.
16BBLL	.
16D#	.
16F#	.
16A	.
4r	.
=740	=740
8.BBL	.
16D#	.
4F#	.
4r	.
4AA	.
=741	=741
8.GG#L	.
16BB	.
4E	.
4r	.
4E	.
=742	=742
8.EEL	.
16AA	.
4BB	.
4r	.
4DD	.
=743	=743
8.CC#L	.
16EE	.
4AA	.
4r	.
8BBL	.
16r	.
16D	.
=744	=744
4E	.
[4EE	.
!LO:TX:t=cresc.	!
8EEL	<
(8EE	.
8FF#)	.
16r	.
16GG#	[
=745	=745
8AAL	f
8r	.
8EE	.
8r	.
8AAL	.
8r	.
4r	.
=746:|!	=746:|!
*k[]	*
*C:	*
!LO:TX:a:B:t=Piu Allegro	!
8EEL	p
8r	.
8GG#	.
8r	.
8AAL	.
8r	.
8C	.
8r	.
=747	=747
8CL	f
8r	.
8BB-	.
8r	.
8AAL	.
8r	.
8FF	.
8r	.
=748	=748
2EE	p
2EE	.
=749	=749
2EE	.
2EE	.
=750	=750
4EE	.
!LO:TX:t=cresc.	!
4EE	<
4DD	.
4D	.
=751	=751
4D	p
!LO:TX:B:t=Rit.	!
4r	.
2r	.
=752	=752
!LO:TX:a:B:t=A tempo	!
8C#L	f
8r	.
8G	.
8r	.
8FL	.
8r	.
8D	.
8r	.
=753	=753
2C#	fp
2C#	.
=754	=754
2C#	.
2C#	.
=755	=755
2C#	.
2C#	.
=756	=756
!LO:TX:t=cresc.	!
2C#	<
2AA	.
=757	=757
4E	p
4r	.
!LO:TX:B:t=Rit.	!
2r	.
=758	=758
!LO:TX:B:t=Accel.	!
4r	.
4D	pp
4D	.
4r	.
=759	=759
4r	.
!LO:TX:t=cresc.	!
4E	<
4E	.
4r	.
=760	=760
4r	.
4F	.
4F	.
4GG#	ff
=761||	=761||
*M2/2	*
8G#L	.
!LO:TX:a:B:t=Presto	!
8r	.
4r	.
2r	.
=762	=762
1r	.
=763	=763
1r	.
=764	=764
1r	.
=765	=765
4r	.
4D	>
4D	.
4D#	]
=766	=766
4r	.
4E	p
4r	.
4E	.
=767	=767
!LO:TX:a:B:t=poco Adagio	!
2r	.
4r	.
8r	.
8r	.
=768||	=768||
*M3/4	*
([2AA	p
8AAL	<
8E)	[
=769	=769
([2BB	.
8BBL	<
8E)	[
=770	=770
([2AA	.
8AAL	<
8E)	[
=771	=771
([2BB	.
8BBL	<
8E)	[
=772	=772
!LO:TX:t=cresc.	!
([2AA	<
8AAL	.
8E)	.
=773	=773
([2GG#	.
8GG#L	.
8E)	.
=774	=774
([2GG	.
8GGL	.
8C)	.
=775	=775
([2FF	>
8FFL	.
8C)	]
=776	=776
([2GG	p
8GGL	.
8G)	.
=777	=777
([2GG	<
8GGL	>
8AA)	]
=778	=778
([2AA	p
8AAL	.
8E)	.
=779	=779
!LO:TX:t=cresc.	!
([2BB	<
8BBL	.
8E)	.
=780	=780
([2AA	.
8AAL	.
8E)	.
=781	=781
([2GG#	.
8GG#L	.
8E)	.
=782	=782
([2GG	.
8GGL	.
8C)	[
=783	=783
([2FF	>
8FFL	.
8C)	]
=784	=784
([2GG	p
8GGL	.
8G)	.
=785	=785
([2GG	<
8GGL	>
8D)	]
=786	=786
([2DD	.
8DDL	.
8D)	.
=787	=787
!LO:TX:t=cresc.	!
([2C#	<
8C#L	.
8C)	.
=788	=788
([2EE	.
8EEL	.
8E)	.
=789	=789
([2D#	.
8D#L	.
8D)	.
=790	=790
([2C	.
8CL	.
8AA)	[
=791	=791
([2GG#	rfz
8GG#L	.
8AA)	.
=792	=792
([2EE	>
8EEL	]
8E)	.
=793	=793
([2AA	p
8AAL	.
8D)	.
=794	=794
([2D	.
8DL	.
8A)	.
=795	=795
!LO:TX:t=cresc.	!
([2C#	<
8C#L	.
8C)	.
=796	=796
([2E	.
8EL	.
8B)	.
=797	=797
([2D#	.
8D#L	.
8D)	.
=798	=798
([2C	.
8CL	.
8AA)	.
=799	=799
([2GG#	rfz
8GG#L	.
8AA)	.
=800	=800
([2EE	>
8EEL	]
8E)	.
=801	=801
4AA	p
4r	.
4r	.
=802	=802
([2AA	>
8AAL	]
8E)	.
=803	=803
4GG#	p
4r	.
4r	.
=804	=804
([2GG#	>
8GG#L	]
8E)	.
=805	=805
4AA	p
4r	.
4r	.
=806	=806
([2AA	f
8AAL	.
8E)	.
=807	=807
8GG#L	f
8r	.
8G#L	.
8r	.
8AL	.
8r	.
=808	=808
8DL	.
8r	.
8EL	.
8r	.
8EL	.
8r	.
=809	=809
4AA	.
4r	.
4r	.
=810	=810
(4.F	>
8C	.
8E	]
8D)	.
=811	=811
4BB	p
4r	.
4r	.
=812	=812
(4.E	>
8BB	.
8D	]
8C)	.
=813	=813
8AAJ	p
(8AL	f
8G#)	.
(8AL	.
8G#)	.
8AJ	.
=814	=814
([2G#	sf
8G#L	.
8A)	.
=815	=815
8AL	.
8r	.
8DL	.
8r	.
8GL	.
8r	.
=816	=816
8CL	.
8r	.
8DL	.
8r	.
8DL	.
8r	.
=817	=817
8GL	.
8r	.
4r	.
4r	.
*clefC4	*
=818	=818
4r	.
8gL	p
8r	.
8aL	.
8r	.
=819	=819
8bL	.
8r	.
4r	.
4r	.
=820	=820
2.r	.
=821	=821
2.r	.
=822	=822
2.r	.
=823	=823
2.r	.
=824	=824
4r	.
4r	.
*clefF4	*
(4GG	.
=825	=825
2.C	<
=826	=826
2BB)	p
*clefC4	*
(4B	.
=827	=827
2A	<
4e	.
=828	=828
2d#)	>
!LO:TX:t=cresc.	!
[4e	<
=829	=829
2e	.
4e	.
=830	=830
2f	.
(8eL	ff
8g	.
=831	=831
8f#L	.
8g	.
8e)	.
8r	.
!LO:TX:t=sempre ff	!
(8eL	.
8g	.
=832	=832
8f#L	.
8g	.
8e)	.
8r	.
(8eL	.
8g	.
=833	=833
8f#L	.
8g	.
8e)	.
8r	.
(8eL	.
8g	.
=834	=834
8f#L	.
8g	.
8e)	.
8r	.
4r	.
*clefF4	*
=835	=835
8r	.
(8GG	p
8BB	.
8E	.
8F#	.
8G	.
=836	=836
8G#L	.
8A)	.
4r	.
4r	.
=837	=837
(8G#L	.
8A)	.
4r	.
4r	.
=838	=838
4r	.
4r	.
*clefC4	*
(8eL	ff
8g	.
=839	=839
8f#L	.
8g	.
8e)	.
8r	.
!LO:TX:t=sempre ff	!
(8eL	.
8g	.
=840	=840
8f#L	.
8g	.
8e)	.
8r	.
(8eL	.
8g	.
=841	=841
8f#L	.
8g	.
8e)	.
8r	.
(8eL	.
8g	.
=842	=842
8f#L	.
8g	.
4e)	.
*clefF4	*
([4CC	p
=843	=843
8CCL	.
8EE	.
8GG	.
8BB	.
8C	.
8E)	.
=844	=844
(8EL	.
8F	.
8G#	.
8A)	.
4r	.
=845	=845
2.r	.
=846	=846
4r	.
4r	.
(8BBL	.
8AA	.
=847	=847
!LO:TX:t=cresc.	!
8FF#L	<
8GG	.
8AA#	.
8BB	.
8C#	.
8D)	.
=848	=848
(8BBL	.
8C	.
8D	.
8C	.
8D	.
8E)	[
=849	=849
!LO:TX:t=dim.	!
[2.F	>
=850	=850
4F	.
[2E	.
=851	=851
!LO:TX:t=piu p	!
4E	p
[2E	.
=852	=852
4E	.
(4E	.
4D	pp
=853	=853
4C#	.
4D	.
4C	.
=854	=854
4BB	.
4C	.
4BB	.
=855	=855
4AA	.
4BB	.
4AA	.
=856	=856
4GG#	.
4AA	.
4EE)	.
=857	=857
([2AA	p
8AAL	]
8E)	.
=858	=858
([2BB	<
8BBL	[
8E)	.
=859	=859
([2AA	<
8AAL	[
8E)	.
=860	=860
([2BB	<
8BBL	[
8E)	.
=861	=861
!LO:TX:t=cresc.	!
([2AA	<
8AAL	.
8E)	.
=862	=862
([2GG#	.
8GG#L	.
8E)	.
=863	=863
([2GG	.
8GGL	.
8C)	.
=864	=864
([2FF	>
8FFL	]
8C)	.
=865	=865
([2GG	p
8GGL	.
8G)	.
=866	=866
([2GG	<
8GGL	>
8AA)	]
=867	=867
([2AA	.
8AAL	.
8E)	.
=868	=868
!LO:TX:t=cresc.	!
([2BB	<
8BBL	.
8E)	.
=869	=869
([2AA	.
8AAL	.
8E)	.
=870	=870
([2GG#	.
8GG#L	.
8E)	.
=871	=871
([2GG	.
8GGL	.
8C)	[
=872	=872
([2FF	>
8FFL	]
8CC)	.
=873	=873
([2GG	p
8GGL	.
8G)	.
=874	=874
([2GG	<
8GGL	>
8D)	]
=875	=875
([2DD	.
8DDL	.
8D)	.
=876	=876
!LO:TX:t=cresc.	!
([2C#	<
8C#L	.
8C)	.
=877	=877
([2EE	.
8EEL	.
8E)	.
=878	=878
([2D#	.
8D#L	.
8D)	.
=879	=879
([2C	.
8CL	.
8AA)	[
=880	=880
([2GG#	rfz
8GG#L	.
8AA)	.
=881	=881
([2EE	.
8EEL	.
8E)	.
=882	=882
([2AA	p
8AAL	.
8D)	.
=883	=883
([2DD	.
8DDL	.
8D)	.
=884	=884
!LO:TX:t=cresc.	!
([2C#	<
8C#L	.
8C)	.
=885	=885
([2EE	.
8EEL	.
8E)	.
=886	=886
([2D#	.
8D#L	.
8D)	.
=887	=887
([2C	.
8CL	.
8AA)	[
=888	=888
([2GG#	rfz
8GG#L	.
8AA)	.
=889	=889
([2EE	.
8EEL	.
8E)	.
=890	=890
4AA	f
8FFL	sf
8r	.
8FFL	.
8r	.
=891	=891
(8EEL	f
8DD#	.
8EEL)	.
8r	.
8EEL	.
8r	.
=892	=892
4r	.
4EE 4C	sf
4r	.
=893	=893
4r	.
4EE 4C	sf
4r	.
=894	=894
4r	.
4EE 4C	sf
4r	.
=895	=895
(8DDL	f
8CC#	.
8DD)	.
8r	.
8DDL	sf
8r	.
=896	=896
4r	.
4DD 4GG	sf
4r	.
=897	=897
4r	.
4DD 4GG	sf
4r	.
=898	=898
4r	.
4GG 4G	sf
4r	.
=899	=899
!LO:TX:t=dim.	!
(8CCL 8C	>
8BB	.
8CCL) 8C	.
8r	.
8CCL 8C	.
8r	.
=900	=900
(8CCL 8C	.
8BB	.
8CCL) 8C	.
8r	.
8CCL 8C	.
8r	]
=901	=901
(8CCL 8C	p
8BB	.
8CCL) 8C	.
8r	.
!LO:TX:t=piu p	!
8CCL 8C	.
8r	.
=902	=902
(8CCL 8C	p
8BB	.
8CCL) 8C	.
8r	.
8CCL 8C	.
8r	.
=903	=903
2.r	.
=904	=904
2.r	.
=905	=905
2.r	.
=906	=906
4r	.
2g	pp
=907	=907
!LO:TX:t=cresc.	!
(8GL	<
8g	.
8F	.
8f	.
8E	.
8e	.
=908	=908
8DL	.
8d	.
8C	.
8c	.
8BB	.
8B	.
=909	=909
8AAL	.
8A	.
8GG	.
8G	.
8FF	.
8F	.
=910	=910
8EEL	.
8E	.
8EE-	.
8E-	.
8DD	.
8D)	.
=911	=911
4.DD	f
(8EE	.
8GG	.
8FF)	.
=912	=912
(8AA#L	.
8C	.
8BB)	sf
(8C#L	.
8E	.
8D)	.
=913	=913
(8EL	.
8G	.
8F)	sf
(8A#L	.
8c	.
8B)	.
=914	=914
(8c#L	.
8e	.
8d)	sf
(8eL	.
8g	.
8f)	.
=915	=915
([2AA	sf
8AAL	.
8E)	.
=916	=916
8GG#L	.
8r	.
8G#L	.
8r	.
8AL	.
8r	.
=917	=917
8dL	.
8r	.
8eL	.
8r	.
8EL	.
8r	.
=918	=918
8AL	.
8r	.
4r	.
4r	.
*clefC4	*
=919	=919
(4.f	>
8c	.
8e	.
8d)	.
=920	=920
8BJ	p
*clefF4	*
(8AAL	f
8GG#)	.
(8AAL	.
8GG#)	.
8GG#J	.
*clefC4	*
=921	=921
(4.e	>
8B	.
8d	.
8c)	.
=922	=922
8cL	p
8r	.
4r	.
*clefF4	*
8r	.
(8AA-	f
=923	=923
8GGJ)	.
(8AA-L	.
8GG)	.
(8AA-L	.
8GG)	.
(8GGJ	.
=924	=924
8CL)	.
8r	.
8BBL	.
8r	.
8CL	.
8r	.
=925	=925
8FFL	.
8r	.
8GGL	.
8r	.
8GGL	.
8r	.
=926	=926
8CL	.
8r	.
4r	.
4r	.
*clefG2	*
=927	=927
4r	.
8cccL	p
8r	.
8cccL	.
8r	.
=928	=928
8cccL	.
8r	.
8eeL	.
8r	.
8eeeL	.
8r	.
=929	=929
4r	.
8ddL	.
8r	.
8dddL	.
8r	.
=930	=930
4r	.
8ccL	.
8r	.
8cccL	.
8r	.
=931	=931
4r	.
8bL	.
8r	.
8bbL	.
8r	.
=932	=932
4r	.
*clefC4	*
8AL	.
8r	.
(8a	.
8g	.
=933	=933
8fL	.
8g	.
8e	.
8d	.
8c	.
8e)	.
=934	=934
(2.f	.
=935	=935
2e)	>
(4e	]
=936	=936
2d)	.
4a	<
=937	=937
2g#)	>
!LO:TX:t=cresc.	!
[4a	<
=938	=938
2a	.
(4a	.
=939	=939
2b-)	.
*clefG2	*
8aaL	ff
8ccc	.
=940	=940
8bbL	.
8ccc	.
8aa	.
8r	.
!LO:TX:t=sempre ff	!
8aaL	.
8ccc	.
=941	=941
8bbL	.
8ccc	.
8aa	.
8r	.
8aaL	.
8ccc	.
=942	=942
8bbL	.
8ccc	.
8aa	.
8r	.
8aaL	.
8ccc	.
=943	=943
8bbL	.
8ccc	.
8aa	.
8r	.
4r	.
*clefF4	*
=944	=944
8r	p
(8CC	.
8EEL	.
8AA	.
8BBL	.
8C	.
=945	=945
8C#L	.
8D	.
8E	.
8G	.
8A	.
8B-)	.
=946	=946
4E	.
4r	.
4r	.
=947	=947
4r	.
4r	.
*clefG2	*
(8aaL	ff
8ccc	.
=948	=948
8bbL	.
8ccc	.
8aa)	.
8r	.
!LO:TX:t=sempre ff	!
(8aaL	.
8ccc	.
=949	=949
8bbL	.
8ccc	.
8aa)	.
8r	.
(8aaL	.
8ccc	.
=950	=950
8bbL	.
8ccc	.
8aa)	.
8r	.
(8aaL	.
8ccc	.
=951	=951
8bbL	.
8ccc	.
8aa)	.
8r	.
*clefF4	*
[4FF	p
=952	=952
(8FFL	.
8AA	.
8BB	.
8C	.
8E	.
8F	.
=953	=953
8AL	.
8B-)	.
4r	.
4r	.
=954	=954
(8BBL	.
8C	.
8D#	.
8E	.
8F#	.
8G	.
*clefC4	*
=955	=955
8BL	.
8c	.
8d#	.
8e	.
8f#	.
8g)	.
*clefF4	*
=956	=956
!LO:TX:t=cresc.	!
(8CCL	<
8DD	.
8EE	.
8CC	.
8DD	.
8EE	.
=957	=957
8FFL	.
8GG	.
8AA	.
8FF	.
8GG	.
8AA)	.
=958	=958
!LO:TX:t=dim.	!
(8BB-L	>
8C	.
8D	.
8BB-	.
8BB	.
[8C	.
=959	=959
2C)	.
[4C	.
=960	=960
2C	p
[4C	.
=961	=961
2C	.
[4c	.
=962	=962
2c	.
(4D	.
=963	=963
4BB	.
4C	.
4EE	pp
=964	=964
4GG	.
4FF	.
4D	.
=965	=965
4GG	.
4F	.
4E	.
=966	=966
4G	.
4AA)	.
!LO:TX:t=sempre pp	!
(4F	.
=967	=967
4C	.
4BB	.
[4F	.
=968	=968
4F	.
4E	.
[4F	.
=969	=969
4F	.
4F#	.
[4G	.
=970	=970
4G	.
4c)	.
([4GG	pp
=971	=971
4GG	.
4C)	.
4r	.
=972	=972
2.r	.
=973	=973
4r	.
4r	.
(4G	pp
=974	=974
4E	.
4F)	.
([4DD	.
=975	=975
4DD	.
4CC#)	.
([4AA	.
=976	=976
4AA	.
4D)	.
(4B	.
=977	=977
4c	.
4B)	.
(4GG	.
=978	=978
4FF#	.
4GG)	.
[4GG	.
=979	=979
2GG	.
*clefC4	*
(4g	.
=980	=980
4f#	.
4g)	.
4r	.
=981	=981
!LO:TX:t=sempre pp	!
4r	.
*clefF4	*
4r	.
([4E	.
=982	=982
4E	.
4F	.
4E	.
=983	=983
4D#	.
4E	.
[4GG#	.
=984	=984
4GG#	.
4AA	.
4C)	.
=985	=985
4r	.
!LO:TX:t=cresc.	!
!LO:TX:t=pizz.	!
4EE	<
4E	.
=986	=986
4r	.
4E	.
4AA	.
=987	=987
4r	.
4GG	.
4G	.
=988	=988
4r	.
4G	.
4C	.
=989	=989
4r	.
4BB	.
4G	.
=990	=990
!LO:TX:B:t=Accel.	!
4r	.
4G	.
4C	.
=991	=991
4r	.
4G	.
4C	.
=992	=992
4r	.
4BB	.
4G#	.
=993	=993
4r	.
4A	.
4AA	.
=994	=994
4r	.
4G#	.
4GG#	.
=995	=995
!LO:TX:t=arco	!
(4.GG#	.
8EE	.
8BB)	.
8GG#	.
=996	=996
(8DL	.
8BB	.
8G#)	.
8r	.
4r	.
=997	=997
2.r	.
=998	=998
4r	.
*clefG2	*
8r	.
(8gg#	.
8aa	.
8bb)	.
=999||	=999||
!LO:TX:t=Presto	!
(4.aa	f
8ee	.
8ccc)	.
8aa	.
=1000	=1000
(2aa	sf
4gg#)	.
=1001	=1001
(4.aa	sf
8bb	.
8ccc	.
8ddd)	.
=1002	=1002
4eee	sf
(4eee	.
4eee)	.
=1003	=1003
2eee	sf
(4eee	.
=1004	=1004
4.ggg	sf
8fff)	.
8eee	.
8ddd	.
=1005	=1005
(2ccc	sf
8eeeL	.
8ddd)	.
=1006	=1006
4ddd	sf
4r	.
4r	.
=1007	=1007
4r	.
(4dd	sf
4ff)	.
=1008	=1008
2.aa	sf
=1009	=1009
4r	.
(4ee	sf
4gg)	.
=1010	=1010
2.bb	sf
=1011	=1011
4r	.
(4aa	sf
4ccc)	.
=1012	=1012
2eee	sf
4eee	.
=1013	=1013
2eee	>
(8gg#L	p
8aa	.
=1014	=1014
4.bb	.
8gg#	.
8ddd	.
8bb)	.
=1015	=1015
(4bb	.
8aaL	.
8gg#	.
8aa	.
8bb)	.
=1016	=1016
(4.ccc#	.
8aa	.
8eee	.
8ccc#)	.
=1017||	=1017||
*k[f#c#g#]	*
*A:	*
(4ccc#	.
8bbL	.
8aa#	.
8bb	.
8ccc#)	.
=1018	=1018
2ddd	.
(4ddd	.
=1019	=1019
2ccc#	.
4bb	<
=1020	=1020
2aa	.
4bb	.
=1021	=1021
2aa	.
4gg#)	[
=1022	=1022
(2.gg#	.
=1023	=1023
[2.aa	.
=1024	=1024
2aa	.
4aa#	.
=1025	=1025
[4bb	.
8bbL	.
8aa#	.
8bb	.
8ccc#)	.
=1026	=1026
2ddd	.
(4ddd	<
=1027	=1027
2ccc#	.
4bb	.
=1028	=1028
2aa	.
4bb	.
=1029	=1029
2aa	>
4gg#)	]
=1030	=1030
(2gg	.
4aa	<
=1031	=1031
2gg	>
4ff#)	]
=1032	=1032
2fff#	.
(4fff#	.
=1033	=1033
2eee	.
4fff#	<
=1034	=1034
2ccc#	.
4ddd)	[
=1035	=1035
(4ddd	>
4ccc#	.
8dddL	]
8eee)	.
=1036	=1036
2fff#	<
(4fff#	.
=1037	=1037
2eee	.
4fff#	[
=1038	=1038
2ccc#	>
8eeeL	]
8ddd)	.
=1039	=1039
4r	.
4ccc#	pp
4r	.
*clefC4	*
=1040	=1040
2.r	.
=1041	=1041
4r	.
(8eL	pp
8f#	.
8e	.
8d)	.
=1042	=1042
(8dL	.
8c#	.
8d	.
8G#	.
8A	.
8B)	.
=1043	=1043
(4A	.
2c#)	.
*clefF4	*
=1044	=1044
4r	.
8r	.
(8AA	pp
8GG#	.
8AA	.
=1045	=1045
8BBL	.
8C#)	.
!LO:TX:t=cresc.	!
(8C#L	<
8BB	.
8C#	.
8D)	.
=1046	=1046
!LO:TX:t=poco  a  poco	!
(8DL	.
8E)	.
8EL	.
8E	.
8E	.
8E	.
=1047	=1047
8AL	.
8c#	.
8e	.
8d	.
8c#	.
8B	.
=1048	=1048
8AL	.
8G#	.
8A	.
8G	.
8F#	.
8E	.
=1049	=1049
8DL	.
8C#	.
8D	.
8C#	.
8BB	.
8AA	.
=1050	=1050
8GG#L	.
8D#	.
8E	.
8D	.
8C#	.
8BB	.
=1051	=1051
!LO:TX:t=piu cresc.	!
!LO:TX:t=piu cresc.	!
4C#	.
4C#	.
4r	.
=1052	=1052
4F#	.
4F#	.
4r	.
=1053	=1053
4BB	.
4BB	.
4r	.
=1054	=1054
4E	.
8EL	.
8EE	.
8FF#	.
8GG#	[
=1055	=1055
(8AAL	f
8EE	.
8C#)	.
8r	.
4r	.
=1056	=1056
(8BBL	sf
8GG#	.
8D)	.
8r	.
4r	.
=1057	=1057
(8C#L	sf
8AA	.
8E)	.
8r	.
4r	.
=1058	=1058
(8DL	sf
8BB	.
8F)	.
(8G#L	.
8g#	.
8a)	.
*clefC4	*
=1059	=1059
!LO:TX:t=dim.	!
4a	>
4a	.
4g#	.
=1060	=1060
4a	.
4a	.
4g#	.
=1061	=1061
4a	p
4a	.
4g#	.
=1062	=1062
!LO:TX:t=piu p	!
4a	.
4a	.
4g#	.
=1063	=1063
4a	pp
4r	.
4r	.
=1064	=1064
4a	.
4r	.
4r	.
=1065	=1065
4f#	.
4r	.
4r	.
*clefF4	*
=1066	=1066
4r	.
!LO:TX:t=cresc.	!
(4AA	<
4FF#)	.
=1067	=1067
4DD	[
2DD#t	.
=1068	=1068
4EE	f
4E	.
4r	.
=1069	=1069
4AA	.
4A	.
4r	.
=1070	=1070
4E	.
[2e	fp
=1071	=1071
2e	.
*clefG2	*
(8gg#L	.
8aa	.
=1072	=1072
4bb)	.
4r	.
(8aaL	.
8bb	.
=1073	=1073
4ccc#)	.
4r	.
(8aaL	.
8bb	.
=1074	=1074
4ccc#)	.
4r	.
(8bbL	.
8ccc#	.
=1075	=1075
2ddd)	.
(4ddd	<
=1076	=1076
2ccc#	.
4bb	.
=1077	=1077
2aa	.
4bb	.
=1078	=1078
2aa	>
4gg#)	]
=1079	=1079
(2gg	<
4aa	[
=1080	=1080
2gg	>
4ff#)	]
=1081	=1081
2fff#	.
(4fff#	<
=1082	=1082
2eee	.
4fff#	.
=1083	=1083
2ccc#	.
4ddd)	.
=1084	=1084
(4ddd	>
4ccc#	.
8dddL	]
8eee)	.
=1085	=1085
2fff#	<
(4fff#	.
=1086	=1086
2eee	.
4fff#	[
=1087	=1087
2ccc#	>
8eeeL	]
8ddd)	.
=1088	=1088
4r	.
4ccc#	pp
4r	.
=1089	=1089
2.r	.
*clefC4	*
=1090	=1090
4r	.
(8g#	pp
8a	.
8g#	.
8f#)	.
=1091	=1091
(8f#L	.
8e	.
8f#	.
8B	.
8c#	.
8d)	.
=1092	=1092
(4c#	.
2e)	.
*clefF4	*
=1093	=1093
4r	.
8r	.
(8C#	.
8D	.
8E)	.
=1094	=1094
!LO:TX:t=cresc.	!
(8EEL	<
8AA	.
8GG#	.
8AA)	.
8BBL	.
8BB	.
=1095	=1095
!LO:TX:t=poco a poco	!
!LO:TX:t=poco a poco	!
8C#L	.
8C#	.
8DL	.
8E	.
8E	.
8EE	.
=1096	=1096
!LO:TX:t=col punto d'arco	!
8AAL	.
!LO:TX:t=col punto d'arco	!
8C#	.
8E	.
8D	.
8C#	.
8BB	.
=1097	=1097
8AAL	.
8GG#	.
8AA	.
8GG	.
8FF#	.
8EE	.
=1098	=1098
8DDL	.
8C#	.
8D	.
8C#	.
8BB	.
8AA	.
=1099	=1099
8GG#L	.
8BB	.
8E	.
8D	.
8C#	.
8BB	.
=1100	=1100
!LO:TX:t=piu cresc	!
4C#	.
4C#	.
4r	.
=1101	=1101
4FF#	.
4FF#	.
4r	.
=1102	=1102
4BB	.
4BB	.
4r	.
=1103	=1103
4E	.
4EE	.
4r	.
=1104	=1104
(8AAL	f
8A	.
8AA)	.
8r	.
4a	.
=1105	=1105
(8AAL	.
8A	.
8AA)	.
8r	.
4a	.
=1106	=1106
(8AAL	.
8A	.
8AA)	.
8r	.
4a	.
=1107	=1107
(8AAL	.
8A	.
8AA)	.
8r	.
4a	.
*clefC4	*
=1108	=1108
!LO:TX:t=dim.	!
8a	>
(8a	.
8g#	.
8a	.
8A	.
8a)	.
=1109	=1109
(8g#L	.
8a	.
8A	.
8a	.
8g#	.
8a)	.
=1110	=1110
(8g#L	p
8a	.
8A	.
8a	.
8g#	.
8a)	.
=1111	=1111
!LO:TX:t=piu p	!
(8g#L	.
8a	.
8A	.
8a	.
8g#	.
8a)	.
=1112	=1112
4a	pp
4r	.
4r	.
*clefF4	*
=1113	=1113
4FF#	.
4r	.
4r	.
=1114	=1114
[2.CC	.
=1115	=1115
4CC	.
!LO:TX:t=cresc.	!
(4CC	<
4CC#)	.
=1116	=1116
4DD	.
2DD#t	.
=1117	=1117
4EE	f
4E	.
4r	.
=1118	=1118
4AA	.
4A	.
4r	.
=1119	=1119
4E	.
4e	.
4r	.
=1120	=1120
4r	.
4E	.
4e	.
=1121	=1121
4A	.
4r	.
4r	.
=1122	=1122
4r	.
4EE	ff
4E	.
=1123	=1123
4AA	.
4r	.
4r	.
==	==
*-	*-
